teeny/solid/micro-sd-card.svg

<svg width="15" height="15" viewBox="0 0 15 15" fill="none" xmlns="http://www.w3.org/2000/svg">
<path fill-rule="evenodd" clip-rule="evenodd" d="M3 1.5C3 0.671573 3.67157 0 4.5 0H12.5C13.3284 0 14 0.671574 14 1.5V13.5C14 14.3284 13.3284 15 12.5 15H2.5C1.67157 15 1 14.3284 1 13.5V8.29289L3 6.29289V1.5ZM6 3V6H7V3H6ZM8 3V6H9V3H8ZM10 6V3H11V6H10Z" fill="black"/>
</svg>

<svg viewBox="0 0 15 15" xmlns="http://www.w3.org/2000/svg"><path fill-rule="evenodd" d="M3 1.5C3 .67 3.67 0 4.5 0h8c.82 0 1.5.67 1.5 1.5v12c0 .82-.68 1.5-1.5 1.5h-10c-.83 0-1.5-.68-1.5-1.5V8.29l2-2v-4.8ZM6 3v3h1V3H6Zm2 0v3h1V3H8Zm2 3V3h1v3h-1Z"/></svg>
